X:1
T:The Black-Smith
M:6/4
L:1/4
K:Bb
 A/2A/2| B2 B B c d| c A F F G A| B A G G3/2 A/2 G| ^F3/2 G/2 A A A G/2A/2|\
 B B B B- c- d| c A B B c d| B A G ^F2 G| G2 G D2 B,| C3/2 D/2 C D2 D|\
 G3- G2||
